X:1
T:Title
%%score { ( 1 3 ) | 2 }
L:1/8
Q:1/4=100
M:6/4
K:F
V:1 treble nm="Grand Piano"
V:3 treble 
V:2 bass 
V:1
 c2 B2 A2 [CEA]3 [B,EG] [A,F]2 | [CFc]2 [DFB]2 [DFG]2 [FA]4 [EG]2 | [Ee]2 [Ed]2 [EB]2 z2 EB c2 | %3
w: S.~M.~Bixby * * * * *|||
 z6 [CG]6[K:bass] | c2 c2 c2 =B3 B B2 | [Gd]2 [Gc]2 [FB]2 [EB]4 [FA]2 | %6
w: |||
 [_EF]2 [EG]2 [EA]2 [Dc]3 [DB] D2 | %7
w: |
[M:10/4] C2[Q:1/4=99] E2[Q:1/4=97] G2[Q:1/4=96] [A,CF]6[Q:1/4=91] z8[Q:1/4=94][Q:1/4=93][Q:1/4=90][Q:1/4=88][Q:1/4=87] | %8
w: |
[M:6/4][Q:1/4=85] [DF]12[Q:1/4=84][Q:1/4=82][Q:1/4=81][Q:1/4=79][Q:1/4=78] |[Q:1/4=76] [A,CF]12 |] %10
w: ||
V:2
 [F,A,F]2 [F,DF]2 [F,CF]2 C,3 C, F,2 | A,,2 B,,2 B,,2 [C,C]4 [C,C]2 | %2
 [C,B,]2 [C,B,]2 [C,G,]2 .[F,F]3 [F,D] [F,A,C]2 | [G,C]2 [G,,G,]2 [G,,G,]2 [C,E,]2 D,2 E,2 | %4
 [F,A,C]2 [F,A,C]2 [F,A,C]2 [F,_A,D]3 [F,A,D] [F,A,D]2 | [E,G,]2 [E,C]2 [D,F,]2 [^C,G,]4 [D,F,]2 | %6
 [C,A,]2 [C,G,]2 [C,F,]2 [B,,F,]3 [B,,F,] [B,,G,]2 | %7
[M:10/4] [C,A,]2 [C,G,C]2 [C,B,C]2 [F,,F,]6 z8 |[M:6/4] [B,,B,]12 | [F,,F,]12 |] %10
V:3
 x12 | x12 | z6 .A6 | D2 [=B,E]2 [B,F]2 z2[K:bass] F,2 G,2 | x12 | x12 | x12 |[M:10/4] x20 | %8
[M:6/4] x12 | x12 |] %10

